static/assets/items/pyratite.svg

<svg xmlns="http://www.w3.org/2000/svg" viewBox="0 0 32 32"><path d="M0 .5V0h32v32H0V.5M22.5 28q.5 0 .875-.125T24 27.5l.5-.5.5-.5.5-.5.5-.5.5-.5.5-.5.5-.5q.25-.25.375-.625T28 22.5v-1-1-1-1-1-1-1-1-1-1-1-1-1q0-.5-.125-.875T27.5 8l-.5-.5-.5-.5-.5-.5-.5-.5-.5-.5-.5-.5-.5-.5q-.25-.25-.625-.375T22.5 4h-13q-.5 0-.875.125T8 4.5l-.5.5-.5.5-.5.5-.5.5-.5.5-.5.5-.5.5q-.25.25-.375.625T4 9.5v13q0 .5.125.875T4.5 24l.5.5.5.5.5.5.5.5.5.5.5.5.5.5q.25.25.625.375T9.5 28h13" fill="none"/><path d="M8 4.5q.25-.25.625-.375T9.5 4H13l.125.375q.125.375.375.625l.5.5.5.5.5.5.5.5.5.5.5.5.5.5.5.5.5.5.5.5.5.5.5.5.5.5.5.5.5.5.5.5.5.5.5.5q.25.25.375.625T23 15.5v4q0 .5-.125.875T22.5 21l-.5.5-.5.5-.5.5-.5.5-.5.5-.5.5-.5.5-.5.5-.5.5-.5.5-.5.5q-.25.25-.625.375L16 27v1H9.5q-.5 0-.875-.125T8 27.5l-.5-.5-.5-.5-.5-.5-.5-.5-.5-.5-.5-.5-.5-.5q-.25-.25-.375-.625T4 22.5v-1-1-1-1-1-1-1-1-1-1-1-1-1q0-.5.125-.875T4.5 8l.5-.5.5-.5.5-.5.5-.5.5-.5.5-.5.5-.5M15.625 28h.625-1 .375m0-1.125L16 27v-.5-1-1-1q0-.5-.125-.875T15.5 22l-.5-.5-.5-.5-.5-.5-.5-.5q-.25-.25-.375-.625T13 18.5q0-.5.125-.875T13.5 17l.5-.5.5-.5.5-.5.5-.5q.25-.25.375-.625t0-.75Q15.75 13.25 15.5 13l-.5-.5-.5-.5-.5-.5-.5-.5q-.25-.25-.375-.625T13 9.5v-1-1-1q0-.5-.125-.875t-.5-.5q-.375-.125-.75 0T11 5.5l-.5.5-.5.5-.5.5-.5.5-.5.5q-.25.25-.375.625T8 9.5q0 .5.125.875T8.5 11l.5.5.5.5.5.5.5.5q.25.25.375.625t0 .75q-.125.375-.375.625l-.5.5-.5.5-.5.5-.5.5q-.25.25-.375.625T8 18.5q0 .5.125.875T8.5 20l.5.5.5.5.5.5.5.5.5.5.5.5.5.5.5.5.5.5.5.5.5.5.5.5.5.5q.25.25.625.375M13.125 4h-.875 1-.125" fill="#d37f47"/><path d="M13.125 4.375L13 4h9.5q.5 0 .875.125T24 4.5l.5.5.5.5.5.5.5.5.5.5.5.5.5.5q.25.25.375.625T28 9.5v13q0 .5-.125.875T27.5 24l-.5.5-.5.5-.5.5-.5.5-.5.5-.5.5-.5.5q-.25.25-.625.375T22.5 28H16v-1l.375-.125q.375-.125.625-.375l.5-.5.5-.5.5-.5.5-.5.5-.5.5-.5.5-.5.5-.5.5-.5.5-.5.5-.5q.25-.25.375-.625T23 19.5v-1-1-1-1q0-.5-.125-.875T22.5 14l-.5-.5-.5-.5-.5-.5-.5-.5-.5-.5-.5-.5-.5-.5-.5-.5-.5-.5-.5-.5-.5-.5-.5-.5-.5-.5-.5-.5-.5-.5-.5-.5-.5-.5-.5-.5q-.25-.25-.375-.625M15.875 28h.875-1 .125m-2.5-24h-.625 1-.375" fill="#ffaa5f"/><path d="M11 5.5q.25-.25.625-.375t.75 0q.375.125.5.5T13 6.5v3q0 .5.125.875T13.5 11l.5.5.5.5.5.5.5.5q.25.25.375.625t0 .75q-.125.375-.375.625l-.5.5-.5.5-.5.5-.5.5q-.25.25-.375.625T13 18.5q0 .5.125.875T13.5 20l.5.5.5.5.5.5.5.5q.25.25.375.625T16 23.5V27l-.375-.125Q15.25 26.75 15 26.5l-.5-.5-.5-.5-.5-.5-.5-.5-.5-.5-.5-.5-.5-.5-.5-.5-.5-.5-.5-.5-.5-.5-.5-.5-.5-.5q-.25-.25-.375-.625T8 18.5q0-.5.125-.875T8.5 17l.5-.5.5-.5.5-.5.5-.5q.25-.25.375-.625t0-.75Q10.75 13.25 10.5 13l-.5-.5-.5-.5-.5-.5-.5-.5q-.25-.25-.375-.625T8 9.5q0-.5.125-.875T8.5 8l.5-.5.5-.5.5-.5.5-.5.5-.5" fill="#ffaa5f"/></svg>

<?xml version="1.0" encoding="UTF-8" standalone="no"?>
<!-- Created with Inkscape (http://www.inkscape.org/) -->

<svg
   xmlns:dc="http://purl.org/dc/elements/1.1/"
   xmlns:cc="http://creativecommons.org/ns#"
   xmlns:rdf="http://www.w3.org/1999/02/22-rdf-syntax-ns#"
   xmlns:svg="http://www.w3.org/2000/svg"
   xmlns="http://www.w3.org/2000/svg"
   xmlns:sodipodi="http://sodipodi.sourceforge.net/DTD/sodipodi-0.dtd"
   xmlns:inkscape="http://www.inkscape.org/namespaces/inkscape"
   version="1.1"
   id="svg8082"
   width="32"
   height="32"
   viewBox="0 0 32 32"
   sodipodi:docname="pyratite.svg"
   inkscape:version="0.92.5 (2060ec1f9f, 2020-04-08)">
  <metadata
     id="metadata8088">
    <rdf:RDF>
      <cc:Work
         rdf:about="">
        <dc:format>image/svg+xml</dc:format>
        <dc:type
           rdf:resource="http://purl.org/dc/dcmitype/StillImage" />
        <dc:title></dc:title>
      </cc:Work>
    </rdf:RDF>
  </metadata>
  <defs
     id="defs8086" />
  <sodipodi:namedview
     pagecolor="#ffffff"
     bordercolor="#666666"
     borderopacity="1"
     objecttolerance="10"
     gridtolerance="10"
     guidetolerance="10"
     inkscape:pageopacity="0"
     inkscape:pageshadow="2"
     inkscape:window-width="1366"
     inkscape:window-height="705"
     id="namedview8084"
     showgrid="false"
     inkscape:zoom="7.375"
     inkscape:cx="16"
     inkscape:cy="16"
     inkscape:window-x="-8"
     inkscape:window-y="-8"
     inkscape:window-maximized="1"
     inkscape:current-layer="svg8082" />
  <g
     id="g8643">
    <path
       style="fill:#000000;fill-opacity:0"
       d="M 0,0.5 V 0 H 0.5 1 1.5 2 2.5 3 3.5 4 4.5 5 5.5 6 6.5 7 7.5 8 8.5 9 9.5 10 10.5 11 11.5 12 12.5 13 13.5 14 14.5 15 15.5 16 16.5 17 17.5 18 18.5 19 19.5 20 20.5 21 21.5 22 22.5 23 23.5 24 24.5 25 25.5 26 26.5 27 27.5 28 28.5 29 29.5 30 30.5 31 31.5 32 V 0.5 1 1.5 2 2.5 3 3.5 4 4.5 5 5.5 6 6.5 7 7.5 8 8.5 9 9.5 10 10.5 11 11.5 12 12.5 13 13.5 14 14.5 15 15.5 16 16.5 17 17.5 18 18.5 19 19.5 20 20.5 21 21.5 22 22.5 23 23.5 24 24.5 25 25.5 26 26.5 27 27.5 28 28.5 29 29.5 30 30.5 31 31.5 32 H 31.5 31 30.5 30 29.5 29 28.5 28 27.5 27 26.5 26 25.5 25 24.5 24 23.5 23 22.5 22 21.5 21 20.5 20 19.5 19 18.5 18 17.5 17 16.5 16 15.5 15 14.5 14 13.5 13 12.5 12 11.5 11 10.5 10 9.5 9 8.5 8 7.5 7 6.5 6 5.5 5 4.5 4 3.5 3 2.5 2 1.5 1 0.5 0 V 31.5 31 30.5 30 29.5 29 28.5 28 27.5 27 26.5 26 25.5 25 24.5 24 23.5 23 22.5 22 21.5 21 20.5 20 19.5 19 18.5 18 17.5 17 16.5 16 15.5 15 14.5 14 13.5 13 12.5 12 11.5 11 10.5 10 9.5 9 8.5 8 7.5 7 6.5 6 5.5 5 4.5 4 3.5 3 2.5 2 1.5 1 0.5 M 22.5,28 Q 23,28 23.375,27.875 23.75,27.75 24,27.5 24.25,27.25 24.5,27 24.75,26.75 25,26.5 25.25,26.25 25.5,26 25.75,25.75 26,25.5 26.25,25.25 26.5,25 26.75,24.75 27,24.5 27.25,24.25 27.5,24 27.75,23.75 27.875,23.375 28,23 28,22.5 q 0,-0.5 0,-1 0,-0.5 0,-1 0,-0.5 0,-1 0,-0.5 0,-1 0,-0.5 0,-1 0,-0.5 0,-1 0,-0.5 0,-1 0,-0.5 0,-1 0,-0.5 0,-1 0,-0.5 0,-1 0,-0.5 0,-1 0,-0.5 0,-1 0,-0.5 0,-1 Q 28,9 27.875,8.625 27.75,8.25 27.5,8 27.25,7.75 27,7.5 26.75,7.25 26.5,7 26.25,6.75 26,6.5 25.75,6.25 25.5,6 25.25,5.75 25,5.5 24.75,5.25 24.5,5 24.25,4.75 24,4.5 23.75,4.25 23.375,4.125 23,4 22.5,4 22,4 21.5,4 21,4 20.5,4 20,4 19.5,4 19,4 18.5,4 18,4 17.5,4 17,4 16.5,4 16,4 15.5,4 15,4 14.5,4 14,4 13.5,4 13,4 12.5,4 12,4 11.5,4 11,4 10.5,4 10,4 9.5,4 9,4 8.625,4.125 8.25,4.25 8,4.5 7.75,4.75 7.5,5 7.25,5.25 7,5.5 6.75,5.75 6.5,6 6.25,6.25 6,6.5 5.75,6.75 5.5,7 5.25,7.25 5,7.5 4.75,7.75 4.5,8 4.25,8.25 4.125,8.625 4,9 4,9.5 q 0,0.5 0,1 0,0.5 0,1 0,0.5 0,1 0,0.5 0,1 0,0.5 0,1 0,0.5 0,1 0,0.5 0,1 0,0.5 0,1 0,0.5 0,1 0,0.5 0,1 0,0.5 0,1 0,0.5 0,1 0,0.5 0,1 Q 4,23 4.125,23.375 4.25,23.75 4.5,24 4.75,24.25 5,24.5 5.25,24.75 5.5,25 5.75,25.25 6,25.5 6.25,25.75 6.5,26 6.75,26.25 7,26.5 7.25,26.75 7.5,27 7.75,27.25 8,27.5 8.25,27.75 8.625,27.875 9,28 9.5,28 q 0.5,0 1,0 0.5,0 1,0 0.5,0 1,0 0.5,0 1,0 0.5,0 1,0 0.5,0 1,0 0.5,0 1,0 0.5,0 1,0 0.5,0 1,0 0.5,0 1,0 0.5,0 1,0 0.5,0 1,0 0.5,0 1,0"
       id="path8635"
       inkscape:connector-curvature="0" />
    <path
       style="fill:#d37f47;fill-opacity:1"
       d="M 8,4.5 Q 8.25,4.25 8.625,4.125 9,4 9.5,4 q 0.5,0 1,0 0.5,0 1,0 0.5,0 1,0 H 13 l 0.125,0.375 Q 13.25,4.75 13.5,5 q 0.25,0.25 0.5,0.5 0.25,0.25 0.5,0.5 0.25,0.25 0.5,0.5 0.25,0.25 0.5,0.5 0.25,0.25 0.5,0.5 0.25,0.25 0.5,0.5 0.25,0.25 0.5,0.5 0.25,0.25 0.5,0.5 0.25,0.25 0.5,0.5 0.25,0.25 0.5,0.5 0.25,0.25 0.5,0.5 0.25,0.25 0.5,0.5 0.25,0.25 0.5,0.5 0.25,0.25 0.5,0.5 0.25,0.25 0.5,0.5 0.25,0.25 0.5,0.5 0.25,0.25 0.5,0.5 0.25,0.25 0.5,0.5 0.25,0.25 0.375,0.625 Q 23,15 23,15.5 q 0,0.5 0,1 0,0.5 0,1 0,0.5 0,1 0,0.5 0,1 0,0.5 -0.125,0.875 Q 22.75,20.75 22.5,21 22.25,21.25 22,21.5 21.75,21.75 21.5,22 21.25,22.25 21,22.5 20.75,22.75 20.5,23 20.25,23.25 20,23.5 19.75,23.75 19.5,24 19.25,24.25 19,24.5 18.75,24.75 18.5,25 18.25,25.25 18,25.5 17.75,25.75 17.5,26 17.25,26.25 17,26.5 16.75,26.75 16.375,26.875 L 16,27 v 0.5 0.5 h -0.5 q -0.5,0 -1,0 -0.5,0 -1,0 -0.5,0 -1,0 -0.5,0 -1,0 -0.5,0 -1,0 -0.5,0 -1,0 Q 9,28 8.625,27.875 8.25,27.75 8,27.5 7.75,27.25 7.5,27 7.25,26.75 7,26.5 6.75,26.25 6.5,26 6.25,25.75 6,25.5 5.75,25.25 5.5,25 5.25,24.75 5,24.5 4.75,24.25 4.5,24 4.25,23.75 4.125,23.375 4,23 4,22.5 4,22 4,21.5 4,21 4,20.5 4,20 4,19.5 4,19 4,18.5 4,18 4,17.5 4,17 4,16.5 4,16 4,15.5 4,15 4,14.5 4,14 4,13.5 4,13 4,12.5 4,12 4,11.5 4,11 4,10.5 4,10 4,9.5 4,9 4.125,8.625 4.25,8.25 4.5,8 4.75,7.75 5,7.5 5.25,7.25 5.5,7 5.75,6.75 6,6.5 6.25,6.25 6.5,6 6.75,5.75 7,5.5 7.25,5.25 7.5,5 7.75,4.75 8,4.5 M 15.625,28 H 16 16.125 16.25 16 q -0.25,0 -0.5,0 h -0.25 0.375 m 0,-1.125 L 16,27 v -0.5 q 0,-0.5 0,-1 0,-0.5 0,-1 0,-0.5 0,-1 Q 16,23 15.875,22.625 15.75,22.25 15.5,22 15.25,21.75 15,21.5 14.75,21.25 14.5,21 14.25,20.75 14,20.5 13.75,20.25 13.5,20 13.25,19.75 13.125,19.375 13,19 13,18.5 13,18 13.125,17.625 13.25,17.25 13.5,17 13.75,16.75 14,16.5 14.25,16.25 14.5,16 14.75,15.75 15,15.5 15.25,15.25 15.5,15 15.75,14.75 15.875,14.375 16,14 15.875,13.625 15.75,13.25 15.5,13 15.25,12.75 15,12.5 14.75,12.25 14.5,12 14.25,11.75 14,11.5 13.75,11.25 13.5,11 13.25,10.75 13.125,10.375 13,10 13,9.5 13,9 13,8.5 13,8 13,7.5 13,7 13,6.5 13,6 12.875,5.625 12.75,5.25 12.375,5.125 12,5 11.625,5.125 11.25,5.25 11,5.5 10.75,5.75 10.5,6 10.25,6.25 10,6.5 9.75,6.75 9.5,7 9.25,7.25 9,7.5 8.75,7.75 8.5,8 8.25,8.25 8.125,8.625 8,9 8,9.5 8,10 8.125,10.375 8.25,10.75 8.5,11 q 0.25,0.25 0.5,0.5 0.25,0.25 0.5,0.5 0.25,0.25 0.5,0.5 0.25,0.25 0.5,0.5 0.25,0.25 0.375,0.625 0.125,0.375 0,0.75 Q 10.75,14.75 10.5,15 10.25,15.25 10,15.5 9.75,15.75 9.5,16 9.25,16.25 9,16.5 8.75,16.75 8.5,17 8.25,17.25 8.125,17.625 8,18 8,18.5 8,19 8.125,19.375 8.25,19.75 8.5,20 q 0.25,0.25 0.5,0.5 0.25,0.25 0.5,0.5 0.25,0.25 0.5,0.5 0.25,0.25 0.5,0.5 0.25,0.25 0.5,0.5 0.25,0.25 0.5,0.5 0.25,0.25 0.5,0.5 0.25,0.25 0.5,0.5 0.25,0.25 0.5,0.5 0.25,0.25 0.5,0.5 0.25,0.25 0.5,0.5 0.25,0.25 0.5,0.5 0.25,0.25 0.5,0.5 0.25,0.25 0.625,0.375 M 13.125,4 H 13 12.625 12.25 12.5 q 0.25,0 0.5,0 h 0.25 -0.125"
       id="path8637"
       inkscape:connector-curvature="0" />
    <path
       style="fill:#ffaa5f;fill-opacity:1"
       d="M 13.125,4.375 13,4 h 0.5 q 0.5,0 1,0 0.5,0 1,0 0.5,0 1,0 0.5,0 1,0 0.5,0 1,0 0.5,0 1,0 0.5,0 1,0 0.5,0 1,0 0.5,0 1,0 Q 23,4 23.375,4.125 23.75,4.25 24,4.5 24.25,4.75 24.5,5 24.75,5.25 25,5.5 25.25,5.75 25.5,6 25.75,6.25 26,6.5 26.25,6.75 26.5,7 26.75,7.25 27,7.5 27.25,7.75 27.5,8 27.75,8.25 27.875,8.625 28,9 28,9.5 q 0,0.5 0,1 0,0.5 0,1 0,0.5 0,1 0,0.5 0,1 0,0.5 0,1 0,0.5 0,1 0,0.5 0,1 0,0.5 0,1 0,0.5 0,1 0,0.5 0,1 0,0.5 0,1 0,0.5 0,1 0,0.5 0,1 0,0.5 -0.125,0.875 Q 27.75,23.75 27.5,24 27.25,24.25 27,24.5 26.75,24.75 26.5,25 26.25,25.25 26,25.5 25.75,25.75 25.5,26 25.25,26.25 25,26.5 24.75,26.75 24.5,27 24.25,27.25 24,27.5 23.75,27.75 23.375,27.875 23,28 22.5,28 q -0.5,0 -1,0 -0.5,0 -1,0 -0.5,0 -1,0 -0.5,0 -1,0 -0.5,0 -1,0 -0.5,0 -1,0 H 16 V 27.5 27 l 0.375,-0.125 Q 16.75,26.75 17,26.5 17.25,26.25 17.5,26 17.75,25.75 18,25.5 18.25,25.25 18.5,25 18.75,24.75 19,24.5 19.25,24.25 19.5,24 19.75,23.75 20,23.5 20.25,23.25 20.5,23 20.75,22.75 21,22.5 21.25,22.25 21.5,22 21.75,21.75 22,21.5 22.25,21.25 22.5,21 22.75,20.75 22.875,20.375 23,20 23,19.5 q 0,-0.5 0,-1 0,-0.5 0,-1 0,-0.5 0,-1 0,-0.5 0,-1 Q 23,15 22.875,14.625 22.75,14.25 22.5,14 22.25,13.75 22,13.5 21.75,13.25 21.5,13 21.25,12.75 21,12.5 20.75,12.25 20.5,12 20.25,11.75 20,11.5 19.75,11.25 19.5,11 19.25,10.75 19,10.5 18.75,10.25 18.5,10 18.25,9.75 18,9.5 17.75,9.25 17.5,9 17.25,8.75 17,8.5 16.75,8.25 16.5,8 16.25,7.75 16,7.5 15.75,7.25 15.5,7 15.25,6.75 15,6.5 14.75,6.25 14.5,6 14.25,5.75 14,5.5 13.75,5.25 13.5,5 13.25,4.75 13.125,4.375 M 15.875,28 H 16 16.375 16.75 16.5 q -0.25,0 -0.5,0 h -0.25 0.125 M 13.375,4 H 13 12.875 12.75 13 q 0.25,0 0.5,0 h 0.25 -0.375"
       id="path8639"
       inkscape:connector-curvature="0" />
    <path
       style="fill:#ffaa5f;fill-opacity:1"
       d="M 11,5.5 Q 11.25,5.25 11.625,5.125 12,5 12.375,5.125 12.75,5.25 12.875,5.625 13,6 13,6.5 q 0,0.5 0,1 0,0.5 0,1 0,0.5 0,1 0,0.5 0.125,0.875 0.125,0.375 0.375,0.625 0.25,0.25 0.5,0.5 0.25,0.25 0.5,0.5 0.25,0.25 0.5,0.5 0.25,0.25 0.5,0.5 0.25,0.25 0.375,0.625 0.125,0.375 0,0.75 Q 15.75,14.75 15.5,15 15.25,15.25 15,15.5 14.75,15.75 14.5,16 14.25,16.25 14,16.5 13.75,16.75 13.5,17 13.25,17.25 13.125,17.625 13,18 13,18.5 13,19 13.125,19.375 13.25,19.75 13.5,20 q 0.25,0.25 0.5,0.5 0.25,0.25 0.5,0.5 0.25,0.25 0.5,0.5 0.25,0.25 0.5,0.5 0.25,0.25 0.375,0.625 Q 16,23 16,23.5 q 0,0.5 0,1 0,0.5 0,1 0,0.5 0,1 V 27 L 15.625,26.875 Q 15.25,26.75 15,26.5 14.75,26.25 14.5,26 14.25,25.75 14,25.5 13.75,25.25 13.5,25 13.25,24.75 13,24.5 12.75,24.25 12.5,24 12.25,23.75 12,23.5 11.75,23.25 11.5,23 11.25,22.75 11,22.5 10.75,22.25 10.5,22 10.25,21.75 10,21.5 9.75,21.25 9.5,21 9.25,20.75 9,20.5 8.75,20.25 8.5,20 8.25,19.75 8.125,19.375 8,19 8,18.5 8,18 8.125,17.625 8.25,17.25 8.5,17 8.75,16.75 9,16.5 9.25,16.25 9.5,16 9.75,15.75 10,15.5 10.25,15.25 10.5,15 10.75,14.75 10.875,14.375 11,14 10.875,13.625 10.75,13.25 10.5,13 10.25,12.75 10,12.5 9.75,12.25 9.5,12 9.25,11.75 9,11.5 8.75,11.25 8.5,11 8.25,10.75 8.125,10.375 8,10 8,9.5 8,9 8.125,8.625 8.25,8.25 8.5,8 8.75,7.75 9,7.5 9.25,7.25 9.5,7 9.75,6.75 10,6.5 10.25,6.25 10.5,6 10.75,5.75 11,5.5"
       id="path8641"
       inkscape:connector-curvature="0" />
  </g>
</svg>
